packages/astro-components-stencil/src/icons/rate-review.svg

<svg xmlns="http://www.w3.org/2000/svg" viewBox="0 0 24 24"><g xmlns="http://www.w3.org/2000/svg" id="rate-review" fill-rule="nonzero">
            <path d="M20 2H4c-1.1 0-2 .9-2 2v18l4-4h14c1.1 0 2-.9 2-2V4c0-1.1-.9-2-2-2zM6 14v-2.47l6.88-6.88c.2-.2.51-.2.71 0l1.77 1.77c.2.2.2.51 0 .71L8.47 14H6zm11 0h-6.5l2-2H17c.55 0 1 .45 1 1s-.45 1-1 1z"/>
        </g></svg>

<svg width="24" height="24" viewBox="0 0 24 24" fill="none" xmlns="http://www.w3.org/2000/svg">
<path fill-rule="evenodd" clip-rule="evenodd" d="M20 2H4C2.9 2 2 2.9 2 4V22L6 18H20C21.1 18 22 17.1 22 16V4C22 2.9 21.1 2 20 2ZM6 14V11.53L12.88 4.65C13.08 4.45 13.39 4.45 13.59 4.65L15.36 6.42C15.56 6.62 15.56 6.93 15.36 7.13L8.47 14H6ZM10.5 14H17C17.55 14 18 13.55 18 13C18 12.45 17.55 12 17 12H12.5L10.5 14Z" fill="black"/>
</svg>
